X: 35519
T: Ruined Old Cottage In The Glen, The
R: reel
M: 4/4
K: Edorian
~B2 BA FAAF|EBBA Bcde|dBAF DEFA|~B2 AF FEED|
~B2 AF DEFA|BdAd Bdef|dBAF DEFA|~B2 AF FEED|
Beed AddA|Beef gfed|Beed Adef|dBAF FEED|Beed AddA|
BABc defe|1 dBAF DEFA|~B2 AF FEED:|2 dBAF DE (3FGA|B2 z6||

